X:218
T: TRAUTE HEIMATH MEINER LIEBEN
N: B0260
O: Europa, Mitteleuropa, Deutschland
R: Stimmungs - Lied, Sehnsucht, Heimat, Heimweh
M: 4/4
L: 1/8
K: C
E,F,G,A, | G,2G,2A,G,A,B, | C2G,2
E2C2 | G,2E,2F,2A,2 | D,4
D3B, | C3G,D,3B, | C2G,2
E2D2 | C2B,2A,2^G,2 | A,4
CB,CA, | G,3E,F,E,F,D, | C,4

@@@ Tune index: 2021
